ids-wordpress/site-IdS/assets/images/projetos/icones-ferramentasetec/html.svg

<svg width="37" height="36" viewBox="0 0 37 36" fill="none" xmlns="http://www.w3.org/2000/svg">
<g clip-path="url(#clip0_694_1577)">
<path d="M16.9091 0.951721C29.3922 -0.0694092 38.8488 11.1224 35.5583 23.2707C31.7338 37.3927 12.8842 40.5487 4.33457 28.7797C-3.64039 17.7997 3.34516 2.06038 16.9091 0.951721ZM17.6689 2.09209C4.72907 2.82527 -2.31355 17.5257 5.29609 28.0732C12.6939 38.3276 28.7453 36.6152 33.6898 24.9502C38.4492 13.7228 29.7931 1.40457 17.6689 2.09209Z" fill="#F75705"/>
<path d="M20.3571 22.0139C19.8903 22.5149 19.2929 22.4046 19.0924 21.7577L19.2066 13.8943C19.6201 13.4656 20.4472 13.4504 20.7935 13.9742L22.6391 19.2905L24.7334 13.8448C25.1076 13.4199 25.9232 13.5214 26.2505 13.9666V22.0786C25.7938 22.5149 25.2306 22.3627 25.0492 21.7577L25.171 15.9949L23.5499 20.2646C23.229 20.9712 22.4247 21.0016 21.9465 20.4232L20.3533 15.9949C20.0413 15.9949 20.3546 16.3666 20.3546 16.4376V22.0139H20.3571Z" fill="#F75705"/>
<path d="M6.92007 17.2621H9.9619V13.9044C10.175 13.4756 11.2291 13.5277 11.2291 13.9044V22.0151C10.9691 22.4679 9.9619 22.3829 9.9619 21.8882V18.4037H6.92007V22.0151C6.30105 22.6037 5.72516 22.3424 5.64398 21.5166C5.41819 19.2079 5.81776 16.5162 5.66427 14.1657C5.79366 13.2422 6.92007 13.6203 6.92007 13.9057V17.2633V17.2621Z" fill="#F75705"/>
<path d="M12.6879 14.8533C12.2388 14.7595 12.1196 14.2229 12.3073 13.8373C12.4139 13.7168 12.5623 13.647 12.7171 13.614C13.161 13.5176 17.55 13.5316 17.8202 13.6521C18.4189 13.9185 18.2071 14.8533 17.7593 14.8533H15.9212V21.8871C15.9212 22.3945 14.5272 22.5188 14.5272 21.7602V14.8533C13.9843 14.7772 13.1915 14.9586 12.6891 14.8533H12.6879Z" fill="#F75705"/>
<path d="M28.9777 21.0639H31.8306C32.1274 21.0639 32.2745 21.9265 31.9891 22.1738C31.7494 22.3819 28.8763 22.3971 28.4158 22.3235C28.2293 22.2943 27.7118 22.0267 27.7118 21.8872V13.9033C27.9249 13.4746 28.979 13.5266 28.979 13.9033V21.0627L28.9777 21.0639Z" fill="#F75705"/>
</g>
<defs>
<clipPath id="clip0_694_1577">
<rect width="35.2512" height="35.1167" fill="white" transform="translate(0.967072 0.887207)"/>
</clipPath>
</defs>
</svg>

<svg xmlns="http://www.w3.org/2000/svg" width="37" height="36" fill="none"><g fill="#F75705" clip-path="url(#a)"><path d="M16.91.952C29.391-.07 38.848 11.122 35.557 23.27 31.734 37.393 12.884 40.549 4.335 28.78-3.64 17.8 3.345 2.06 16.909.952Zm.759 1.14C4.729 2.825-2.314 17.526 5.296 28.073c7.398 10.255 23.45 8.542 28.394-3.123 4.76-11.227-3.897-23.545-16.021-22.858Z"/><path d="M20.357 22.014c-.467.5-1.064.39-1.265-.256l.115-7.864c.413-.428 1.24-.444 1.587.08l1.845 5.317 2.094-5.446c.375-.425 1.19-.324 1.517.122v8.112c-.456.436-1.02.284-1.2-.321l.121-5.763-1.621 4.27c-.321.706-1.125.737-1.604.158l-1.593-4.428c-.312 0 .002.372.002.443v5.576h.002ZM6.92 17.262h3.042v-3.358c.213-.428 1.267-.376 1.267 0v8.111c-.26.453-1.267.368-1.267-.127v-3.484H6.92v3.611c-.619.589-1.195.327-1.276-.498-.226-2.31.174-5 .02-7.351.13-.924 1.256-.546 1.256-.26v3.357ZM12.688 14.853c-.45-.094-.568-.63-.38-1.016a.745.745 0 0 1 .41-.223c.443-.096 4.832-.082 5.102.038.599.267.387 1.201-.06 1.201H15.92v7.034c0 .508-1.394.632-1.394-.127v-6.907c-.543-.076-1.335.106-1.838 0h-.001ZM28.978 21.064h2.853c.296 0 .444.863.158 1.11-.24.208-3.113.223-3.573.15-.187-.03-.704-.297-.704-.437v-7.984c.213-.428 1.267-.376 1.267 0v7.16h-.001Z"/></g><defs><clipPath id="a"><path fill="#fff" d="M.967.887h35.251v35.117H.968z"/></clipPath></defs></svg>
